X:350
T: Und aus ist's mit mir (4-49), S. 66
N: P0610
O: Lothringen
S: PINCK, Louis: Verklingende Weisen Bd 4, Kassel 1939]
R: ???]
M: 3/4
L: 1/16
K: G
D4 | G4B4G4 | A4
F4e4 | d4c4F4 | G8
D4 | G4B4G4 | A4
F4e4 | d2d2c4F2F2 | G8
d3c | B2d2G2G2A2G2 | F2A2c4
d2d2 | f2zde2d2c2F2 | G8
d3c | B2d2G2G2A2G2 | F2A2c4
d2d2 | f2d2e2d2c2F2 | G8

